!!!COM: Robert Schumann
!!!CNT: Deutsch
!!!TXO: Deutsch
!!!OTL: Stille Liebe
!!!LYR: Kerner
!!!OPR: Zwo2lf Gedichte
!!!OPS: Op.35
!!!ONM: No. 8
!!!ENC: Ben Fuhrman
!!!YOR: Schumann Lieder - Max Friedlaender, ed.,
!!!YOR: New York: C. F. Peters, Vol. 2
!!!ODT: 1840/
!!NB: Vocal melody and text only encoded.
!!NB: First instance of melodic material only encoded.
**kern	**silbe
*clefG2	*
*k[b-e-a-d-g-]	*
*M2/4	*
!!created: 07/03/06 10:15
!!proofed and posted: 07/03/06 10:15
!!edit time: 25 minutes
=6	=6
4r	.
{8.f	{Ko2nnt'
16f	ich
=7	=7
8.e-	dich
16e-	in
8.d-	Lie-
16d-	-dern
=8	=8
8a-	prei-
8g-	-sen,
8.g-	sa2ng'
16g-	ich
=9	=9
8.f	dir
16f	das
8.e-	la2ng-
16e-	-ste
=10	=10
4a-	Lied,
8.a-	ja
16a-	ich
=11	=11
8.gn	wu2rd'
16gn	in
8.ee-	al-
16g-	-len
=12	=12
8.g-	Wei-
16f	-sen
8.f	dich
16f	zu
=13	=13
8b-	sin-
8e-	-gen
8.g-	nim-
16f	-mer
=14	=14
8d-}	mu2d',}
8r	.
4r	.
!! rest to measure 18
=18	=18
4r	.
{8.g#	{Doch
16g#	was
=19	=19
8.f#	im-
16f#	-mer
8.en	mich
16en	be-
=20	=20
8.bn	tru2b-
16an	-te,
8.an	ist,
16an	dass
=21	=21
8.g#	ich
16g#	nur
8.f#	im-
16f#	-mer
=22	=22
4bn	stumm
8.bn	tra-
16bn	-gen
=23	=23
8.a#	kann
16a#	dich,
8.ff#	Herz-
16an	-ge-
=24	=24
8an	lieb-
8g#	-te!
16r	.
8g#	in
16g#	des
=25	=25
8cc#	Du-
8f#	-sens
8.an	Hei-
16g#	-lig
=26	=26
8en}	-tum.}
8r	.
4r	.
!! rest to measure 31
=31	=31
4r	.
{8.fn	{Die-
16f	-ser
=32	=32
8.e-	Schmerz
16e-	hat
8.d-	mich
16d-	be-
=33	=33
8a-	-zwum-
8g-	-gen,
8.g-	dass
16g-	ich
=34	=34
8.fn	sang
16fn	dies
8.e-	klei-
16e-	-ne
=35	=35
4a-	Lied,
8.a-	doch
16a-	von
=36	=36
8.gn	bit-
16gn	-term
8.ee-	Leid
16g-	durch-
=37	=37
8.g-	-drun-
16f	-gen,
8.f	dass
16f	noch
=38	=38
8b-	keins
8e-	auf
8.g-	dich
16f	ge-
=39	=39
4d-}	-riet.}
4r	.
==	==
*-	*-
